svg/u1f3eb.svg

<svg viewBox="0 0 128 128" xmlns="http://www.w3.org/2000/svg">
  <path d="M6.33,66.37v57.72h116.06l0-57.94c0,0-23.22-16.02-24.29-16.17c-1.07-0.15-32.26-28.7-32.26-28.7 L31.46,49.01L6.33,66.37z" fill="#F8C778"/>
  <polygon points="6.33,66.31 33.73,66.31 33.7,124.03 38.25,124.03 38.28,53.76 65.16,30.1 92.28,54.9 92.21,124.03 96.47,124.03 96.54,65.98 122.39,66.16 122.39,62.71 98.81,50.07 67.27,22.36 32.45,49.5 6.35,63.01 " fill="#F5B03F"/>
  <path d="M13.1,42.57c-0.18,0.29-7.15,19.51-7.28,19.91c-0.13,0.4,0.2,0.87,1,0.94c0.8,0.07,28.39,0,28.39,0 l-0.08-11.78c0,0,29.62-26.66,29.95-26.66s30.18,27.35,30.25,27.76c0.07,0.4,0.13,10.22,0.13,10.22s26.25,0.2,26.79,0.27 s0.67-0.67,0.2-2.07c-0.47-1.4-5.95-18.3-6.35-18.57c-0.4-0.27-22.04-0.27-22.04-0.27S66.95,17.36,66.48,16.96 c-0.47-0.4-1.87-1.01-3.11,0.23c-1.09,1.09-28.13,25.33-28.13,25.33S13.3,42.23,13.1,42.57z" fill="#A62714"/>
  <path d="M43.91,80.59l-0.01,43.48l42.36,0l0-43.48C86.26,80.59,43.91,80.48,43.91,80.59z" fill="#CF6150"/>
  <path d="M3.64,124.25c0.37,0.56,4.69,0.3,16.2,0.36c11.51,0.06,14.86,0.04,15.46-0.08 c0.59-0.12,1.07-2.71,0.68-4.96c-0.43-2.47-1.91-4.8-4.31-5.55c-3.21-1-5.19-0.08-6.73-0.62c-1.54-0.53-6.05-2.79-10.62-2.49 c-3.92,0.25-6.71,1.4-9.14,4.98C2.57,119.74,3.4,123.89,3.64,124.25z" fill="#7DB240"/>
  <path d="M126.09,124.01c0.59-0.41,0.54-11.77-7.36-12.64c-5.93-0.65-7.48,1.9-8.48,1.9 c-1.01,0-4.85-1.87-10.15,0.18c-6.59,2.55-6.47,9.97-6.23,10.68s7.06,0.53,16.43,0.59S125.32,124.55,126.09,124.01z" fill="#7DB240"/>
  <path d="M11.57,69.63h18.69v15.05H11.32C11.32,84.68,11.44,69.75,11.57,69.63z" fill="#3E737C"/>
  <path d="M11.32,91.71h18.61v14.56H11.16C11.16,106.28,11.24,91.63,11.32,91.71z" fill="#3E737C"/>
  <path d="M14.4,72.38h12.7v9.95H14.24C14.24,82.33,14.15,72.46,14.4,72.38z" fill="#A7D0D7"/>
  <path d="M13.83,94.14h13.43v9.63H13.83C13.83,103.77,13.83,94.06,13.83,94.14z" fill="#A7D0D7"/>
  <path d="M99.67,70.52h18.61v14.97H99.59C99.59,85.49,99.67,70.28,99.67,70.52z" fill="#3E737C"/>
  <path d="M102.26,73.11h13.35v9.71h-13.35C102.26,82.82,102.26,72.94,102.26,73.11z" fill="#A7D0D7"/>
  <path d="M99.43,92.6h18.53v14.16H99.43C99.43,106.76,99.31,92.73,99.43,92.6z" fill="#3E737C"/>
  <path d="M102.34,95.19v8.74h12.7v-8.82C115.04,95.11,102.22,95.07,102.34,95.19z" fill="#A7D0D7"/>
  <path d="M50.06,124.09l-0.01-38.76h30.5l0,38.76C80.55,124.09,50.14,124.09,50.06,124.09z" fill="#3E737C"/>
  <path d="M76.94,93.24v-5.1c0,0-23.21,0-23.12,0v5.1H76.94z" fill="#A7D0D7"/>
  <g>
    <rect height="13.27" fill="#A7D0D7" width="23.12" x="53.82" y="95.79"/>
    <rect height="6.94" fill="#A7D0D7" width="23.12" x="53.82" y="111.79"/>
  </g>
  <path d="M64.28,94.65v26.11h2.64V94.38C66.92,94.38,64.46,94.65,64.28,94.65z" fill="#3E737C"/>
  <path d="M64.46,40.06c-10.37,0.09-17.32,7.82-16.79,17.76c0.51,9.66,8.18,15.72,17.05,15.47 c9.32-0.26,16-7.74,16.26-16.61S74.04,39.98,64.46,40.06z" fill="#3E737C"/>
  <path d="M64.2,43.05c-8.44,0-14.07,6.42-13.71,14.15c0.34,7.46,5.36,13.1,13.98,13.1 c7.91,0,13.11-6.5,13.27-13.19C77.91,49.81,72.46,43.05,64.2,43.05z" fill="#FFFFFF"/>
  <path d="M61.74,57.46c0,0-4.9,4.12-5.17,4.6s-0.26,1.27,0.39,1.8c0.66,0.53,1.31,0.22,1.71-0.09 c0.39-0.31,5.56-4.55,5.56-4.55s1.67-0.03,2.06-2.01c0.31-1.58-0.83-2.32-0.83-2.32s-0.18-9.46-0.26-10.16 c-0.07-0.52-0.61-1.01-1.09-0.96c-0.48,0.04-0.96,0.31-1.01,1.09C63.05,45.64,63,54.7,63,54.7s-0.7,0.26-1.09,1.01 C61.52,56.45,61.74,57.46,61.74,57.46z" fill="#2F2F2F"/>
</svg>

<svg viewBox="0 0 128 128" xmlns="http://www.w3.org/2000/svg">
  <defs/>
  <path d="M6.33,66.37 L6.33,124.09 L122.39,124.09 L122.39,66.15 C122.39,66.15 99.17,50.13 98.1,49.98 C97.03,49.83 65.84,21.28 65.84,21.28 L31.46,49.01 L6.33,66.37 Z" fill="#F8C778"/>
  <path d="M6.33,66.31 L33.73,66.31 L33.7,124.03 L38.25,124.03 L38.28,53.76 L65.16,30.1 L92.28,54.9 L92.21,124.03 L96.47,124.03 L96.54,65.98 L122.39,66.16 L122.39,62.71 L98.81,50.07 L67.27,22.36 L32.45,49.5 L6.35,63.01 Z" fill="#F5B03F"/>
  <path d="M13.1,42.57 C12.92,42.86 5.95,62.08 5.82,62.48 C5.69,62.88 6.02,63.35 6.82,63.42 C7.62,63.49 35.21,63.42 35.21,63.42 L35.13,51.64 C35.13,51.64 64.75,24.98 65.08,24.98 C65.41,24.98 95.26,52.33 95.33,52.74 C95.4,53.14 95.46,62.96 95.46,62.96 C95.46,62.96 121.71,63.16 122.25,63.23 C122.79,63.3 122.92,62.56 122.45,61.16 C121.98,59.76 116.5,42.86 116.1,42.59 C115.7,42.32 94.06,42.32 94.06,42.32 C94.06,42.32 66.95,17.36 66.48,16.96 C66.01,16.56 64.61,15.95 63.37,17.19 C62.28,18.28 35.24,42.52 35.24,42.52 C35.24,42.52 13.3,42.23 13.1,42.57 Z" fill="#A62714"/>
  <path d="M43.91,80.59 L43.9,124.07 L86.26,124.07 L86.26,80.59 C86.26,80.59 43.91,80.48 43.91,80.59 Z" fill="#CF6150"/>
  <path d="M3.64,124.25 C4.01,124.81 8.33,124.55 19.84,124.61 C31.35,124.67 34.7,124.65 35.3,124.53 C35.89,124.41 36.37,121.82 35.98,119.57 C35.55,117.1 34.07,114.77 31.67,114.02 C28.46,113.02 26.48,113.94 24.94,113.4 C23.4,112.87 18.89,110.61 14.32,110.91 C10.4,111.16 7.61,112.31 5.18,115.89 C2.57,119.74 3.4,123.89 3.64,124.25 Z" fill="#7DB240"/>
  <path d="M126.09,124.01 C126.68,123.6 126.63,112.24 118.73,111.37 C112.8,110.72 111.25,113.27 110.25,113.27 C109.24,113.27 105.4,111.4 100.1,113.45 C93.51,116 93.63,123.42 93.87,124.13 C94.11,124.84 100.93,124.66 110.3,124.72 C119.67,124.78 125.32,124.55 126.09,124.01 Z" fill="#7DB240"/>
  <path d="M11.57,69.63 L30.26,69.63 L30.26,84.68 L11.32,84.68 C11.32,84.68 11.44,69.75 11.57,69.63 Z" fill="#3E737C"/>
  <path d="M11.32,91.71 L29.93,91.71 L29.93,106.27 L11.16,106.27 C11.16,106.28 11.24,91.63 11.32,91.71 Z" fill="#3E737C"/>
  <path d="M14.4,72.38 L27.1,72.38 L27.1,82.33 L14.24,82.33 C14.24,82.33 14.15,72.46 14.4,72.38 Z" fill="#A7D0D7"/>
  <path d="M13.83,94.14 L27.26,94.14 L27.26,103.77 L13.83,103.77 C13.83,103.77 13.83,94.06 13.83,94.14 Z" fill="#A7D0D7"/>
  <path d="M99.67,70.52 L118.28,70.52 L118.28,85.49 L99.59,85.49 C99.59,85.49 99.67,70.28 99.67,70.52 Z" fill="#3E737C"/>
  <path d="M102.26,73.11 L115.61,73.11 L115.61,82.82 L102.26,82.82 C102.26,82.82 102.26,72.94 102.26,73.11 Z" fill="#A7D0D7"/>
  <path d="M99.43,92.6 L117.96,92.6 L117.96,106.76 L99.43,106.76 C99.43,106.76 99.31,92.73 99.43,92.6 Z" fill="#3E737C"/>
  <path d="M102.34,95.19 L102.34,103.93 L115.04,103.93 L115.04,95.11 C115.04,95.11 102.22,95.07 102.34,95.19 Z" fill="#A7D0D7"/>
  <path d="M50.06,124.09 L50.05,85.33 L80.55,85.33 L80.55,124.09 C80.55,124.09 50.14,124.09 50.06,124.09 Z" fill="#3E737C"/>
  <path d="M76.94,93.24 L76.94,88.14 C76.94,88.14 53.73,88.14 53.82,88.14 L53.82,93.24 L76.94,93.24 Z" fill="#A7D0D7"/>
  <path d="M53.82,95.79 L76.94,95.79 L76.94,109.06 L53.82,109.06 L53.82,95.79 Z" fill="#A7D0D7"/>
  <path d="M53.82,111.79 L76.94,111.79 L76.94,118.73 L53.82,118.73 L53.82,111.79 Z" fill="#A7D0D7"/>
  <path d="M64.28,94.65 L64.28,120.76 L66.92,120.76 L66.92,94.38 C66.92,94.38 64.46,94.65 64.28,94.65 Z" fill="#3E737C"/>
  <path d="M64.46,40.06 C54.09,40.15 47.14,47.88 47.67,57.82 C48.18,67.48 55.85,73.54 64.72,73.29 C74.04,73.03 80.72,65.55 80.98,56.68 C81.24,47.81 74.04,39.98 64.46,40.06 Z" fill="#3E737C"/>
  <path d="M64.2,43.05 C55.76,43.05 50.13,49.47 50.49,57.2 C50.83,64.66 55.85,70.3 64.47,70.3 C72.38,70.3 77.58,63.8 77.74,57.11 C77.91,49.81 72.46,43.05 64.2,43.05 Z" fill="#FFFFFF"/>
  <path d="M61.74,57.46 C61.74,57.46 56.84,61.58 56.57,62.06 C56.3,62.54 56.31,63.33 56.96,63.86 C57.62,64.39 58.27,64.08 58.67,63.77 C59.06,63.46 64.23,59.22 64.23,59.22 C64.23,59.22 65.9,59.19 66.29,57.21 C66.6,55.63 65.46,54.89 65.46,54.89 C65.46,54.89 65.28,45.43 65.2,44.73 C65.13,44.21 64.59,43.72 64.11,43.77 C63.63,43.81 63.15,44.08 63.1,44.86 C63.05,45.64 63,54.7 63,54.7 C63,54.7 62.3,54.96 61.91,55.71 C61.52,56.45 61.74,57.46 61.74,57.46 Z" fill="#2F2F2F"/>
</svg>
